X:35
M:C
L:1/8
Q:1/4=140
K:Bb
(de) | f>bd>f B>dF>B | D>B,D>F B2 (3 FGA | B>FD>F d>cB>d | f>ed>e c2 d>e |!
f>bd>f B>dF>G | D>B,D>F B2 (3 FGA | B>FB>d c>eA>c | B2B2B2:|!
|: (BA) | B>df>a b>ag^f | g>^fg>a g2 cB | A>FA>c e>gf>e | d>cd>e f2 (dc) |!

